flaticon/science/dropper.svg

<svg xmlns="http://www.w3.org/2000/svg" width="32" height="32" viewBox="0 0 24 24">
    <path d="M 22.90625 1.074219 C 21.476562 -0.359375 19.148438 -0.359375 17.714844 1.074219 L 12.503906 6.324219 L 12.199219 6.019531 C 12.035156 5.855469 11.789062 5.855469 11.628906 6.019531 L 9.910156 7.734375 C 9.746094 7.898438 9.746094 8.144531 9.910156 8.304688 L 11.078125 9.46875 L 2.554688 17.992188 C 2.386719 18.160156 2.242188 18.339844 2.117188 18.535156 C 2.066406 18.613281 2.019531 18.691406 1.972656 18.773438 C 1.929688 18.855469 1.890625 18.9375 1.851562 19.023438 C 1.71875 19.316406 1.628906 19.632812 1.574219 19.953125 C 1.558594 20.0625 1.535156 20.167969 1.511719 20.269531 C 1.449219 20.511719 1.355469 20.746094 1.230469 20.957031 C 1.121094 21.140625 0.992188 21.3125 0.835938 21.464844 L 0.386719 21.914062 C 0.226562 22.050781 0.117188 22.242188 0.0625 22.449219 C 0.0351562 22.554688 0.0195312 22.660156 0.0195312 22.765625 C 0.0195312 22.769531 0.0195312 22.769531 0.0195312 22.773438 C 0.0195312 23.101562 0.144531 23.386719 0.386719 23.632812 C 0.59375 23.878906 0.917969 24 1.246094 24 C 1.574219 24 1.902344 23.878906 2.105469 23.632812 L 2.554688 23.183594 C 2.964844 22.816406 3.496094 22.527344 4.066406 22.445312 C 4.800781 22.324219 5.496094 21.996094 6.027344 21.464844 L 14.566406 12.929688 L 15.714844 14.070312 C 15.796875 14.152344 15.878906 14.191406 16 14.191406 C 16.082031 14.191406 16.203125 14.191406 16.246094 14.070312 L 17.960938 12.351562 C 18.125 12.1875 18.125 11.945312 17.960938 11.78125 L 17.695312 11.511719 L 22.90625 6.261719 C 24.335938 4.832031 24.335938 2.503906 22.90625 1.074219 Z M 5.457031 20.894531 C 5.046875 21.261719 4.515625 21.546875 3.945312 21.628906 C 3.207031 21.753906 2.511719 22.078125 1.980469 22.609375 L 1.53125 23.058594 C 1.367188 23.222656 1.125 23.222656 0.960938 23.058594 C 0.796875 22.898438 0.796875 22.652344 0.960938 22.488281 L 1.410156 22.039062 C 1.941406 21.507812 2.269531 20.8125 2.390625 20.078125 C 2.472656 19.503906 2.71875 18.972656 3.125 18.566406 L 5.34375 16.359375 L 9.992188 16.359375 Z M 10.808594 15.539062 L 6.164062 15.539062 L 11.667969 10.0625 L 12.847656 11.222656 L 13.992188 12.359375 Z M 16 13.210938 L 10.808594 8.019531 L 11.953125 6.875 L 17.144531 12.066406 Z M 17.144531 10.921875 L 13.097656 6.875 L 18.328125 1.644531 C 19.433594 0.542969 21.273438 0.542969 22.375 1.644531 C 23.480469 2.75 23.480469 4.585938 22.375 5.691406 Z M 17.144531 10.921875"/>
    <path d="M 20.332031 1.644531 C 19.800781 1.644531 19.269531 1.847656 18.859375 2.257812 L 18.125 2.992188 C 17.960938 3.15625 17.960938 3.402344 18.125 3.566406 C 18.207031 3.648438 18.289062 3.6875 18.410156 3.6875 C 18.535156 3.6875 18.65625 3.648438 18.699219 3.566406 L 19.472656 2.832031 C 19.921875 2.378906 20.742188 2.378906 21.191406 2.832031 C 21.355469 2.992188 21.597656 2.992188 21.761719 2.832031 C 21.925781 2.667969 21.925781 2.421875 21.761719 2.257812 C 21.394531 1.847656 20.863281 1.644531 20.332031 1.644531 Z M 20.332031 1.644531"/>
</svg>

<svg xmlns="http://www.w3.org/2000/svg" width="32" height="32" viewBox="0 0 24 24">
    <path d="M22.906 1.074a3.67 3.67 0 0 0-5.191 0l-5.211 5.25-.305-.304a.392.392 0 0 0-.57 0L9.91 7.734a.392.392 0 0 0 0 .57l1.168 1.165-8.523 8.523a3.211 3.211 0 0 0-.438.543c-.05.078-.097.156-.144.238a3.81 3.81 0 0 0-.398 1.18c-.016.11-.04.215-.063.317a2.653 2.653 0 0 1-.282.687c-.109.184-.238.355-.394.508l-.45.45c-.16.136-.269.327-.324.534a1.26 1.26 0 0 0-.042.317v.007c0 .329.125.614.367.86.207.246.531.367.86.367.327 0 .655-.121.858-.367l.45-.45c.41-.367.941-.656 1.511-.738a3.586 3.586 0 0 0 1.961-.98l8.54-8.535 1.148 1.14a.37.37 0 0 0 .285.121c.082 0 .203 0 .246-.12l1.715-1.72a.392.392 0 0 0 0-.57l-.266-.27 5.211-5.25a3.673 3.673 0 0 0 0-5.187zM5.457 20.894c-.41.368-.941.653-1.512.735-.738.125-1.433.45-1.965.98l-.449.45a.392.392 0 0 1-.57 0 .392.392 0 0 1 0-.57l.45-.45c.53-.531.859-1.227.98-1.96a2.648 2.648 0 0 1 .734-1.513l2.219-2.207h4.648zm5.352-5.355H6.164l5.504-5.476 1.18 1.16 1.144 1.136zM16 13.211L10.809 8.02l1.144-1.145 5.192 5.191zm1.145-2.29l-4.047-4.046 5.23-5.23c1.106-1.102 2.945-1.102 4.047 0a2.884 2.884 0 0 1 0 4.046zm0 0"/>
    <path d="M20.332 1.645c-.531 0-1.062.203-1.473.613l-.734.734a.396.396 0 0 0 0 .574.37.37 0 0 0 .285.122c.125 0 .246-.04.29-.122l.773-.734c.449-.453 1.27-.453 1.718 0 .164.16.407.16.57 0a.396.396 0 0 0 0-.574c-.366-.41-.898-.613-1.429-.613zm0 0"/>
</svg>
